X:1
T:Veni, sponsa Christi
T:Veni, sponsa Christi
T:Josef Rheinberger
T:Op. 58, nr. VI
C:Josef Rheinberger
%%score [ 1 2 3 ( 4 5 ) ]
L:1/8
Q:1/4=63
M:4/4
K:Ab
V:1 treble nm="Soprano"
V:2 treble nm="Alto"
V:3 treble-8 nm="Tenor"
V:4 bass nm="Bass"
V:5 bass 
V:1
"^Andante espressivo"!p! c3 c B2 A2 | E4 E4 |!<(! F3 A A2 d2!<)! |!>(! (c>B) A2!>)! z2 c2- | %4
w: Ve- ni, spon- sa|Chris- ti,|ac- ci- pe co-|ro- * nam, ac-|
 c2 (BA) G3 F | F2 E2 e4- | e2 (dc) B3 F | A2 G2!mf! B2 B B | B3/2 B/ B2 B3 B | %9
w: * ci- * pe co-|ro- nam, ac-|* ci- * pe co-|ro- nam, quam ti- bi|Do- mi- nus prae- pa-|
 c2 B2 (e=d)!>(! c B | B3/2 A/!>)! A2- A B2 F | A2 G2!f! B2 c2 | (=d2 ed c2 d2) | %13
w: ra- vit, quam _ ti- bi|Do- mi- nus _ prae- pa-|ra- vit in ae-|ter- * * * *|
 e3 z!f! e2!p! B2 |!f! e2!p! B2 z2 B B | c2 B2 z2!<(! B2 | (B2 d2)!<)! c2!>(! G2 | %17
w: num. Ve- ni,|ve- ni, spon- sa|Chris- ti, pro|cu- * jus a-|
 B2!>)! A2 G2 A B | c2 F F (A2 _G2) | F2!f! f4 e2 |!>(! d4 =d4!>)! | %21
w: mo- re san- gui- nem|tu- um fu- dis- *|ti, san- gui-|nem tu-|
!p!!<(! e2 B2!<)!!>(! _d2 c2!>)! | z2!pp! G2 B2 A A |!<(! A3 A G2 F F!<)! |!f! (=d2 c2) B2 A2 | %25
w: um fu- dis- ti,|pro cu- jus a-|mo- re san- gui- nem|tu- * um fu-|
 (A2 F4 B2) | B6 z2 | z8 |!pp!"^dolce" A3 A G2 F2 | E4 E4 |!<(! E3 A A2 c2!<)! |!f! (e>d) c4 B2- | %32
w: dis- * *|ti.||Ve- ni, spon- sa|Chris- ti,|ac- ci- pe co-|ro- * nam, ac-|
 B A (A3 d) (B_G) | (F6 E2) | D2 z2 z4 |!mf! A2 B A d3/2 A/ A2 | _G3 A G2 F2 | %37
w: * ci- pe _ co- *|ro- *|nam,|quam ti- bi Do- mi- nus|prae- pa- ra- vit,|
!<(! (F2 _G) F B2 F2!<)! | d3 c c2 B2 |!f! e4 c4 | a4 f4 | d4 B4 | A4 G4 | z2!p! d2!<(! d2 d d | %44
w: prae- * pa- ra- vit|in ae- ter- num.|Ve- ni,|ve- ni,|spon- sa|Chris- ti,|pro cu- jus a-|
 d3 d d2 c B!<)! |!f! (g2 f2) e2 d2 | d4 c4 | z2!pp! c2 c2 c c | _c2 c2!<(! B2 F G!<)! | %49
w: mo- re san- gui- nem|tu- * um fu-|dis- ti,|pro cu- jus a-|mo- re san- gui- nem|
 (A2 E2) G2 F2 |!>(! (E2 B4 A2)!>)! | !fermata!A8 |] %52
w: tu- * um fu-|dis- * *|ti.|
V:2
!p! E3 E D2 C2 | E4 (D2 C2) |!<(! D3 D D2 F2!<)! |!>(! (E>D) C2!>)! z2 (C2 | D2) D2 D2 D2 | %5
w: Ve- ni, spon- sa|Chris- ti, _|ac- ci- pe co-|ro- * nam, ac-|* ci- pe co-|
 C2 C2 z2 (E2 | F2) F2 F3 F | E2 E2!mf! G2 A G | G3/2 F/ F2 (E2 F) E | E2 =D2 z4 | %10
w: ro- nam, ac-|* ci- pe co-|ro- nam, quam ti- bi|Do- mi- nus prae- * pa-|ra- vit,|
!f! E2 F E E3/2 =D/ D2 | E3 E G2 (FE) | =D F (B3 AGF) | G3 z!f! G2!p! A2 |!f! G2!p! F2 z2 F F | %15
w: quam ti- bi Do- mi- nus|prae- pa- ra- vit _|in ae- ter- * * *|num. Ve- ni,|ve- ni, spon- sa|
 G2 G2 z2!<(! G2 | G4!<)! G2!>(! G2 | =E2!>)! F2 D2 D D | C2 C C (F2 E2) | D2!f! d4 c2 | %20
w: Chris- ti, pro|cu- jus a-|mo- re san- gui- nem|tu- um fu- dis- *|ti, san- gui-|
!>(! B4 B4!>)! |!p!!<(! B2 E2!<)!!>(! E2 E2!>)! | z2!pp! D2 D2 C C |!<(! =D3 D D2 D D!<)! | %24
w: nem tu-|um fu- dis- ti,|pro cu- jus a-|mo- re san- gui- nem|
!f! =D4 D2 D2 | (=D6- DE) | E6 z2 | z4!pp! E2 E2 | E3 E D2 C2 | B,4 B,4 |!<(! E3 E E2 E2!<)! | %31
w: tu- um fu|dis- * *|ti.|Ve- ni,|ve- ni, spon- sa|Chris- ti,|ac- ci- pe co-|
!f! (C>D) E4 (E2 | F3) _G A2 D2 | (D4 C4) | D2 z2!mf! F2 _G F | F3/2 E/ E2 (D2 E) D | D2 C2 z4 | %37
w: ro- * nam, ac-|* ci- pe co-|ro- *|nam, quam ti- bi|Do- mi- nus prae- * pa-|ra- vit,|
!<(! E3 E D2 D2!<)! | B3 A A2 G2 | z2!f! c4 A2- | A2 F4 d2- | d2 B4 G2 | F4 =E4 | %43
w: prae- pa- ra- vit|in ae- ter- num.|Ve- ni,|_ ve- ni,|_ spon- sa|Chris- ti,|
 z2!p! G2!<(! G2 G G | G3 G G2 G G!<)! |!f! G4 G2 G2 | A4 A4 | z2!pp! C2 C2 C C | %48
w: pro cu- jus a-|mo- re san- gui- nem|tu- um fu-|dis- ti,|pro cu- jus a-|
 D2 D2!<(! =D2 D D!<)! | E4 _D2 C2 |!>(! (B,4 E4)!>)! | !fermata!E8 |] %52
w: mo- re san- gui- nem|tu- um fu-|dis- *|ti.|
V:3
!p! A3 A A2 A2 | A4 (G2 A2) |!<(! A3 A A2 A2!<)! |!>(! A2 E2!>)! z2 A2- | A2 (GF) E2 (FG) | %5
w: Ve- ni, spon- sa|Chris- ti, _|ac- ci- pe co-|ro- nam, ac-|* ci- * pe co- *|
 A2 A2 c4- | c2!<(! (Bc) (d!<)!!>(!fd) c!>)! | c2 B2!mf! e2 e e | =d3/2 d/ d2 B3 B | A2 B A A2 G2 | %10
w: ro- nam, ac-|* ci- * pe _ _ co-|ro- nam, quam ti- bi|Do- mi- nus, Do- mi-|nus prae- pa- ra- vit,|
!f! c2 =d c B A (GF) | E3 E (Ee) (=dc) | (BA) G2 (A2 B2) | B3 z!f! B2!p! =d2 | %14
w: quam ti- bi Do- mi- nus _|prae- pa- ra- * vit _|in _ ae- ter- *|num. Ve- ni,|
!f! B2!p! =d2 z2 d d | e2 e2 z2!<(! e2 | (d2 B2)!<)! G2!>(! c2 | d2!>)! c2 B2 B B | A2 A A A4 | %19
w: ve- ni, spon- sa|Chris- ti, pro|cu- * jus a-|mo- re san- gui- nem|tu- um fu- dis-|
 A2 z2 z4 | z2!>(! _g4 f2!>)! |!p! e2 (dc) B2 c2 | z2!pp! B A G2 A G |!<(! F3 F G2 A A!<)! | %24
w: ti,|san- gui-|nem fu- * dis- ti,|pro _ cu- jus a-|mo- re san- gui- nem|
!f! (B2 A2) G2 F2 | (F2 B2 A3 G) | G6 z2 |"^poco marc." c3 c B2 A2 | E4 E4 |!<(! E3 B B2 d2!<)! | %30
w: tu- * um fu-|dis- * * *|ti.|Ve- ni, spon- sa|Chris- ti,|ac- ci- pe co-|
 (c>B) A6 |!f! (A6 Bc | d3) e f2 B2 | (A2 F2 _G3 A) | F2 z2!mf! d2 d d | c3/2 c/ c2 A3 A | %36
w: ro- * nam,|ac- * *|* ci- pe co-|ro- * * *|nam, quam ti- bi|Do- mi- nus prae- pa-|
 A2 A2 A3 A |!<(! =A2 A2 B2 B2!<)! | e6 e2 | z2!f! e4 c2- | c2 A4 F2- | F2 d4 B2 | (F2 A2) c4 | %43
w: ra- vit, prae- pa-|ra- vit in ae-|ter- num.|Ve- ni,|_ ve- ni,|_ spon- sa|Chris- * ti,|
 z2!p! =e2!<(! e2 e e | _e3 e e2 e e!<)! |!f! (e2 d2) c2 B2 | A4 A4 | z2!pp! A2 A2 A A | %48
w: pro cu- jus a-|mo- re san- gui- nem|tu- * um fu-|dis- ti,|pro cu- jus a-|
 A2 A2!<(! A2 A B!<)! | c4 B2 A2 |!>(! (G4 d4)!>)! | !fermata!c8 |] %52
w: mo- re san- gui- nem|tu- um fu-|dis- *|ti.|
V:4
 z8 |!p! C,3 C, B,,2 A,,2 |!<(! D,3 F, F,2 D,2!<)! |!>(! A,2 A,,2!>)! z2 (A,,2 | %4
w: |Spon- sa Chris- ti|ac- ci- pe co-|ro- nam, ac-|
 B,,2) B,,2 B,,2 B,,2 | C,2 C,2 z2 (C,2 | D,2) D,2 D,3 =D, | E,2 E,2 z4 | %8
w: * ci- pe co-|ro- nam, ac-|* ci- pe co-|ro- nam,|
!mf! A,2 B, A, A,3/2 G,/ G,2 | (F,2 G,) F, F,2 E,2 | F,6 B,,2 | C,2 C,2 G,,2 A,,2 | B,,8 | %13
w: quam ti- bi Do- mi- nus|prae- * pa- ra- vit|in ae-|ter- num, in ae-|ter-|
 E,3 z!f! E,2!p! F,2 |!f! G,2!p! A,2 z2 A, A, | G,2 G,2 z2!<(! G,2 | F,4!<)! =E,2!>(! E,2 | %17
w: num. Ve- ni,|ve- ni, spon- sa|Chris- ti, pro|cu- jus a-|
 F,2!>)! F,2 B,,2 A,, G,, | C,2 C, C, C,4 |!<(! D,3 E, F,2 G, =A,!<)! |!>(! B,4 _A,4!>)! | %21
w: mo- re san- gui- nem|tu- um fu- dis-|ti, pro cu- jus a-|mo- re,|
!p! G,2 G,4 A,2 | =E,2!pp! E,4 F,2 |!<(! B,,4 B,,2 B,,2!<)! |!f! B,4 B,,2 B,,2 | E,8 | %26
w: pro cu- jus|a- mo- re|san- gui- nem|tu- um fu-|dis-|
 E,4!pp! E,2 E,2 | E,3 E, D,2 C,2 | C,3 C, B,,2 A,,2 | G,,3 G,, G,,2 G,,2 | %30
w: ti. Ve- ni,|ve- ni, spon- sa,|spon- sa Chris- ti,|ac- ci- pe co-|
 (A,,>B,,)!<(! C,4 (A,,2!<)! | !^!_G,2) !^!G,2 !^!G,2 !^!G,2 | (F,6 _G,2 | A,4 A,,4) | %34
w: ro- * nam, ac-|* ci- pe co-|ro- *||
 D,2 z2!mf! A,2 B, A, | A,3/2 _G,/ G,2 (F,2 G,) F, | F,2 E,2 (D,2 E,) D, | %37
w: nam, quam ti- bi|Do- mi- nus prae- * pa-|ra- vit, prae- * pa-|
!<(! D,2 C,2 B,,3 A,,!<)! | (G,,2 A,,C, E,2) E,2 |!f! C4 A,4 | F,4 D,4 | B,,4 G,,4 | %42
w: ra- vit in ae-|ter- * * * num.|Ve- ni,|ve- ni,|spon- sa|
 C,4 C,2!p! C2 | B,4 B,2 B,2 |!<(! B,3 B, B,2 C D!<)! |!f! E4 E,2 E,2 | F,4 F,2!pp! F,2 | %47
w: Chris- ti, pro|cu- jus a-|mo- re san- gui- nem|tu- um fu-|dis- ti, pro|
 F,4 F,2 F,2 | F,2 F,2!<(! F,2 B,, B,,!<)! | E,4 E,2 E,2 |!>(! E,8!>)! | !fermata!A,,8 |] %52
w: cu- jus a-|mo- re san- gui- nem|tu- um fu-|dis-|ti.|
V:5
 x8 | x8 | x8 | x8 | x8 | x8 | x8 | x8 | x8 | x8 | x8 | x8 | x8 | x8 | x8 | x8 | x8 | x8 | x8 | %19
 x8 | x8 | x8 | x8 | x8 | x8 | x8 | x8 | x8 | x8 | x8 | x8 | x8 | x8 | x8 | x8 | x8 | x8 | x8 | %38
 x8 | x8 | x8 | x8 | x8 | x8 | x8 | x8 | x8 | x8 | x8 | x8 | (E,4 E,,4) | x8 |] %52

